X: 1121
T: Sir John Whitefoorde's Strathspey
%R: air, strathspey
B: Niel Gow & Sons "A Collection of Strathspey Reels, etc." v.1 p.12 #1
Z: 2022 John Chambers <jc:trillian.mit.edu>
N: The book has the 2nd strain with an initial repeat in the bass voice, but no final repeat; fixed to match the 1st strain.
M: C
L: 1/8
Q: "Slow"
K: Eb
% - - - - - - - - - -
V: 1 staves=2
B, |\
E>FEB, CDE<e | B<GF>E TC2C>D | E>FEB, C>DEe | B>GF>G E2E :| a | g>ef>d e>cB<G | TF>AGE C2-C>a |
g>ed<f e<cTB>G | TF>EFG E2-E>g || e<ge<B c<eTB>G | F>AGB, TC2-C>D | E>FEB, CDE>e | B<GTF>G E2E |]
% - - - - - - - - - -
% Voice 2 preserves the staff layout in the book.
V: 2 clef=bass middle=d
z | e2e2 a2g2 | e2b2 a2A2 | g2e2 a2g2 | b2B2 e2e :| z | e'2b2 a2e2 | b2e2 a2A2 |
e2b2 a2e2 | b2B2 e2e2 || e2g2 a2e2 | B2G2 A2a2 | g2e2 a2g2 | b2B2 e2e |]
